www/b14d48e0-1285-11e4-9191-0800200c9a66/7.svg

<?xml version="1.0" encoding="UTF-8" standalone="no"?>
<svg xmlns="http://www.w3.org/2000/svg" xmlns:xlink="http://www.w3.org/1999/xlink" baseProfile="tiny" height="681" width="1635.2" version="1.1" viewBox="-20 -20 1635.25 681">
  <defs>
    <path id="arrow" stroke-width="0" d="m0 0v12l16-6z"/>
  </defs>
  <rect y="-20" width="1635.2" fill="transparent" x="-20" height="681"/>
  <a id="a0" xlink:href="4.html">
    <path id="a0" stroke="blue" stroke-width="2" fill="none" d="m0 292.13h126.5"/>
    <use xlink:href="#arrow" transform="translate(110.5 286.13)"/>
    <text y="307.133" x="63.25" font-size="15" text-anchor="middle" fill="black">FA</text>
  </a>
  <a id="a1" xlink:href="5.html">
    <path id="a1" stroke="blue" stroke-width="2" fill="none" d="m0 527.18h126.5"/>
    <use xlink:href="#arrow" transform="translate(132.5 543.18) rotate(-90)"/>
    <text y="542.177" x="63.25" font-size="15" text-anchor="middle" fill="black">FB</text>
  </a>
  <a id="a2" xlink:href="6.html">
    <path id="a2" stroke="blue" stroke-width="2" fill="none" d="m712.5 242h694.5"/>
    <use xlink:href="#arrow" transform="translate(1391 236)"/>
    <text y="257" x="803.875" font-size="15" text-anchor="middle" fill="black">B[0]</text>
  </a>
  <a id="a3" xlink:href="5.html">
    <path id="a3" stroke="blue" stroke-width="2" fill="none" d="m449.75 363h156.75v-121h26"/>
    <use xlink:href="#arrow" transform="translate(616.5 236)"/>
    <text y="378" x="541.125" font-size="15" text-anchor="middle" fill="black">B[0][1]</text>
  </a>
  <a id="a4" xlink:href="2.html">
    <path id="a4" stroke="blue" stroke-width="2" fill="none" d="m975.25 146h385.75v123.81h46"/>
    <use xlink:href="#arrow" transform="translate(1391 263.81)"/>
    <text y="161" x="1066.62" font-size="15" text-anchor="middle" fill="black">B[1]</text>
  </a>
  <a id="a5" xlink:href="4.html">
    <path id="a5" stroke="blue" stroke-width="2" fill="none" d="m712.5 459h156.75v-313h26"/>
    <use xlink:href="#arrow" transform="translate(879.25 140)"/>
    <text y="474" x="803.875" font-size="15" text-anchor="middle" fill="black">B[1][1]</text>
  </a>
  <a id="a6" xlink:href="5.html">
    <path id="a6" stroke="blue" stroke-width="2" fill="none" d="m1238 50h143v164.19h26"/>
    <use xlink:href="#arrow" transform="translate(1391 208.19)"/>
    <text y="65" x="1312.5" font-size="15" text-anchor="middle" fill="black">B[2]</text>
  </a>
  <a id="a7" xlink:href="0.html">
    <path id="a7" stroke="blue" stroke-width="2" fill="none" d="m975.25 555h156.75v-505h26"/>
    <use xlink:href="#arrow" transform="translate(1142 44)"/>
    <text y="570" x="1066.62" font-size="15" text-anchor="middle" fill="black">B[2][1]</text>
  </a>
  <a id="a8" xlink:href="2.html">
    <path id="a8" stroke="blue" stroke-width="2" fill="none" d="m199.5 271.27h26v-79.27h447v10"/>
    <use xlink:href="#arrow" transform="translate(678.5 186) rotate(90)"/>
    <text y="207" x="289.625" font-size="15" text-anchor="middle" fill="black">FA[0]</text>
  </a>
  <a id="a9" xlink:href="6.html">
    <path id="a9" stroke="blue" stroke-width="2" fill="none" d="m199.5 313h210.25v10"/>
    <use xlink:href="#arrow" transform="translate(415.75 307) rotate(90)"/>
    <text y="328" x="289.625" font-size="15" text-anchor="middle" fill="black">FA[1]</text>
  </a>
  <a id="a10" xlink:href="6.html">
    <path id="a10" stroke="blue" stroke-width="2" fill="none" d="m1480 45.859h115.2"/>
    <use xlink:href="#arrow" transform="translate(1579.2 39.859)"/>
    <text y="60.8594" x="1537.62" font-size="15" text-anchor="middle" fill="black">A</text>
  </a>
  <a id="a11" xlink:href="0.html">
    <path id="a11" stroke="blue" stroke-width="2" fill="none" d="m199.5 499.35h26v-136.35h144.25"/>
    <use xlink:href="#arrow" transform="translate(353.75 357)"/>
    <text y="378" x="289.625" font-size="15" text-anchor="middle" fill="black">FB[0]</text>
  </a>
  <a id="a12" xlink:href="6.html">
    <path id="a12" stroke="blue" stroke-width="2" fill="none" d="m199.5 527.18h36v-68.18h397"/>
    <use xlink:href="#arrow" transform="translate(616.5 453)"/>
    <text y="474" x="289.625" font-size="15" text-anchor="middle" fill="black">FB[1]</text>
  </a>
  <a id="a13" xlink:href="2.html">
    <path id="a13" stroke="blue" stroke-width="2" fill="none" d="m199.5 555h695.75"/>
    <use xlink:href="#arrow" transform="translate(879.25 549)"/>
    <text y="570" x="289.625" font-size="15" text-anchor="middle" fill="black">FB[2]</text>
  </a>
  <a id="a14" xlink:href="0.html">
    <path id="a14" stroke="blue" stroke-width="2" fill="none" d="m1480 242h115.2"/>
    <use xlink:href="#arrow" transform="translate(1579.2 236)"/>
    <text y="257" x="1537.62" font-size="15" text-anchor="middle" fill="black">B</text>
  </a>
  <a id="a15" xlink:href="4.html">
    <path id="a15" stroke="blue" stroke-width="2" fill="none" d="m409.75 403v46h66v-111h196.75v81"/>
    <use xlink:href="#arrow" transform="translate(678.5 403) rotate(90)"/>
    <text y="353" x="541.125" font-size="15" text-anchor="middle" fill="black">A[0][1]</text>
  </a>
  <a id="a16" xlink:href="0.html">
    <path id="a16" stroke="blue" stroke-width="2" fill="none" d="m672.5 282v46h66v-232h196.75v10"/>
    <use xlink:href="#arrow" transform="translate(941.25 90) rotate(90)"/>
    <text y="111" x="803.875" font-size="15" text-anchor="middle" fill="black">A[0][0]</text>
  </a>
  <a id="a17" xlink:href="0.html">
    <path id="a17" stroke="blue" stroke-width="2" fill="none" d="m672.5 499v46h66v-111h196.75v81"/>
    <use xlink:href="#arrow" transform="translate(941.25 499) rotate(90)"/>
    <text y="449" x="803.875" font-size="15" text-anchor="middle" fill="black">A[1][1]</text>
  </a>
  <a id="a18" xlink:href="5.html">
    <path id="a18" stroke="blue" stroke-width="2" fill="none" d="m935.25 186v46h65.95v-232h196.8v10"/>
    <use xlink:href="#arrow" transform="translate(1204 -6) rotate(90)"/>
    <text y="15" x="1066.62" font-size="15" text-anchor="middle" fill="black">A[1][0]</text>
  </a>
  <a id="a19" xlink:href="4.html">
    <path id="a19" stroke="blue" stroke-width="2" fill="none" d="m935.25 595v46h65.95v-111h369.8v-463.28l36-0.001"/>
    <use xlink:href="#arrow" transform="translate(1391 60.719)"/>
    <text y="545" x="1066.62" font-size="15" text-anchor="middle" fill="black">A[1]</text>
  </a>
  <a id="a20" xlink:href="2.html">
    <path id="a20" stroke="blue" stroke-width="2" fill="none" d="m1198 90v46h66v-111h143"/>
    <use xlink:href="#arrow" transform="translate(1391 19)"/>
    <text y="40" x="1312.5" font-size="15" text-anchor="middle" fill="black">A[0]</text>
  </a>
  <a id="a21" xlink:href="0.html">
    <rect id="a21" height="80" width="80" stroke="#000" y="202" x="632.5" stroke-width=".5" fill="none"/>
    <image y="202" x="632.5" xlink:href="b14d48e0-1285-11e4-9191-0800200c9a66/Exchanger.svg" width="80" height="80"/>
    <text y="318" x="672.5" font-size="15" text-anchor="middle" fill="black">S[0][0]</text>
  </a>
  <a id="a22" xlink:href="6.html">
    <rect id="a22" height="80" width="80" stroke="#000" y="323" x="369.75" stroke-width=".5" fill="none"/>
    <image y="323" x="369.75" xlink:href="b14d48e0-1285-11e4-9191-0800200c9a66/Exchanger.svg" width="80" height="80"/>
    <text y="439" x="409.75" font-size="15" text-anchor="middle" fill="black">S[0][1]</text>
  </a>
  <a id="a23" xlink:href="2.html">
    <rect id="a23" height="80" width="80" stroke="#000" y="106" x="895.25" stroke-width=".5" fill="none"/>
    <image y="106" x="895.25" xlink:href="b14d48e0-1285-11e4-9191-0800200c9a66/Exchanger.svg" width="80" height="80"/>
    <text y="222" x="935.25" font-size="15" text-anchor="middle" fill="black">S[1][0]</text>
  </a>
  <a id="a24" xlink:href="5.html">
    <rect id="a24" height="80" width="80" stroke="#000" y="419" x="632.5" stroke-width=".5" fill="none"/>
    <image y="419" x="632.5" xlink:href="b14d48e0-1285-11e4-9191-0800200c9a66/Exchanger.svg" width="80" height="80"/>
    <text y="535" x="672.5" font-size="15" text-anchor="middle" fill="black">S[1][1]</text>
  </a>
  <a id="a25" xlink:href="4.html">
    <rect id="a25" height="80" width="80" stroke="#000" y="10" x="1158" stroke-width=".5" fill="none"/>
    <image y="10" x="1158" xlink:href="b14d48e0-1285-11e4-9191-0800200c9a66/Exchanger.svg" width="80" height="80"/>
    <text y="126" x="1198" font-size="15" text-anchor="middle" fill="black">S[2][0]</text>
  </a>
  <a id="a26" xlink:href="0.html">
    <rect id="a26" height="80" width="80" stroke="#000" y="515" x="895.25" stroke-width=".5" fill="none"/>
    <image y="515" x="895.25" xlink:href="b14d48e0-1285-11e4-9191-0800200c9a66/Exchanger.svg" width="80" height="80"/>
    <text y="631" x="935.25" font-size="15" text-anchor="middle" fill="black">S[2][1]</text>
  </a>
  <a id="a27" xlink:href="6.html">
    <rect id="a27" height="83.469" width="73" stroke="#000" y="250.4" x="126.5" stroke-width=".5" fill="none"/>
    <image y="250.4" x="126.5" xlink:href="b14d48e0-1285-11e4-9191-0800200c9a66/Divider.svg" width="73" height="83.469"/>
    <text y="348.867" x="163" font-size="15" text-anchor="middle" fill="black">SPLITA</text>
  </a>
  <a id="a28" xlink:href="6.html">
    <rect id="a28" height="83.438" width="73" stroke="#000" y="4.1406" x="1407" stroke-width=".5" fill="none"/>
    <image y="4.1406" x="1407" xlink:href="b14d48e0-1285-11e4-9191-0800200c9a66/Mixer.svg" width="73" height="83.438"/>
    <text y="102.578" x="1443.5" font-size="15" text-anchor="middle" fill="black">MIXA</text>
  </a>
  <a id="a29" xlink:href="5.html">
    <rect id="a29" height="83.469" width="73" stroke="#000" y="485.44" x="126.5" stroke-width=".5" fill="none"/>
    <image y="485.44" x="126.5" xlink:href="b14d48e0-1285-11e4-9191-0800200c9a66/Divider.svg" width="73" height="83.469"/>
    <text y="583.911" x="163" font-size="15" text-anchor="middle" fill="black">SPLITB</text>
  </a>
  <a id="a30" xlink:href="3.html">
    <rect id="a30" height="83.438" width="73" stroke="#000" y="200.28" x="1407" stroke-width=".5" fill="none"/>
    <image y="200.28" x="1407" xlink:href="b14d48e0-1285-11e4-9191-0800200c9a66/Mixer.svg" width="73" height="83.438"/>
    <text y="298.719" x="1443.5" font-size="15" text-anchor="middle" fill="black">MIXB</text>
  </a>
</svg>

<?xml version="1.0" encoding="UTF-8"?>
<!DOCTYPE svg PUBLIC "-//W3C//DTD SVG 1.1 Tiny//EN" "http://www.w3.org/Graphics/SVG/1.1/DTD/svg11-tiny.dtd">
<svg version="1.1" baseProfile="tiny" xmlns="http://www.w3.org/2000/svg" xmlns:xlink="http://www.w3.org/1999/xlink" width="1635.25" height="681" viewBox="-20 -20 1635.25 681" >
  <defs>
    <path id="arrow" stroke-width="0" d="M 0 0 L 0 12 L 16 6 Z" />
  </defs>
  <rect fill="transparent" stroke="none" x="-20" y="-20" width="1635.25" height="681" />
  <a xlink:href="84.html" id="a0">
    <path id="a0" fill="none" stroke="blue" stroke-width="2" d="M 0 292.133 L 126.5 292.133 " />
    <use xlink:href="#arrow" transform="translate(110.5 286.133)" />
    <text text-anchor="middle" fill="black" font-size="15" x="63.25" y="307.133">FA</text>
  </a>
  <a xlink:href="88.html" id="a1">
    <path id="a1" fill="none" stroke="blue" stroke-width="2" d="M 0 527.177 L 126.5 527.177 " />
    <use xlink:href="#arrow" transform="translate(132.5 543.177) rotate(270 0.0 0.0)" />
    <text text-anchor="middle" fill="black" font-size="15" x="63.25" y="542.177">FB</text>
  </a>
  <a xlink:href="66.html" id="a2">
    <path id="a2" fill="none" stroke="blue" stroke-width="2" d="M 712.5 242 L 1407 242 " />
    <use xlink:href="#arrow" transform="translate(1391 236)" />
    <text text-anchor="middle" fill="black" font-size="15" x="803.875" y="257">B[0]</text>
  </a>
  <a xlink:href="68.html" id="a3">
    <path id="a3" fill="none" stroke="blue" stroke-width="2" d="M 449.75 363 L 606.5 363 L 606.5 242 L 632.5 242 " />
    <use xlink:href="#arrow" transform="translate(616.5 236)" />
    <text text-anchor="middle" fill="black" font-size="15" x="541.125" y="378">B[0][1]</text>
  </a>
  <a xlink:href="72.html" id="a4">
    <path id="a4" fill="none" stroke="blue" stroke-width="2" d="M 975.25 146 L 1361 146 L 1361 269.812 L 1407 269.812 " />
    <use xlink:href="#arrow" transform="translate(1391 263.812)" />
    <text text-anchor="middle" fill="black" font-size="15" x="1066.62" y="161">B[1]</text>
  </a>
  <a xlink:href="74.html" id="a5">
    <path id="a5" fill="none" stroke="blue" stroke-width="2" d="M 712.5 459 L 869.25 459 L 869.25 146 L 895.25 146 " />
    <use xlink:href="#arrow" transform="translate(879.25 140)" />
    <text text-anchor="middle" fill="black" font-size="15" x="803.875" y="474">B[1][1]</text>
  </a>
  <a xlink:href="78.html" id="a6">
    <path id="a6" fill="none" stroke="blue" stroke-width="2" d="M 1238 50 L 1381 50 L 1381 214.188 L 1407 214.188 " />
    <use xlink:href="#arrow" transform="translate(1391 208.188)" />
    <text text-anchor="middle" fill="black" font-size="15" x="1312.5" y="65">B[2]</text>
  </a>
  <a xlink:href="80.html" id="a7">
    <path id="a7" fill="none" stroke="blue" stroke-width="2" d="M 975.25 555 L 1132 555 L 1132 50 L 1158 50 " />
    <use xlink:href="#arrow" transform="translate(1142 44)" />
    <text text-anchor="middle" fill="black" font-size="15" x="1066.62" y="570">B[2][1]</text>
  </a>
  <a xlink:href="52.html" id="a8">
    <path id="a8" fill="none" stroke="blue" stroke-width="2" d="M 199.5 271.266 L 225.5 271.266 L 225.5 192 L 672.5 192 L 672.5 202 " />
    <use xlink:href="#arrow" transform="translate(678.5 186) rotate(90 0.0 0.0)" />
    <text text-anchor="middle" fill="black" font-size="15" x="289.625" y="207">FA[0]</text>
  </a>
  <a xlink:href="56.html" id="a9">
    <path id="a9" fill="none" stroke="blue" stroke-width="2" d="M 199.5 313 L 409.75 313 L 409.75 323 " />
    <use xlink:href="#arrow" transform="translate(415.75 307) rotate(90 0.0 0.0)" />
    <text text-anchor="middle" fill="black" font-size="15" x="289.625" y="328">FA[1]</text>
  </a>
  <a xlink:href="86.html" id="a10">
    <path id="a10" fill="none" stroke="blue" stroke-width="2" d="M 1480 45.8594 L 1595.25 45.8594 " />
    <use xlink:href="#arrow" transform="translate(1579.25 39.8594)" />
    <text text-anchor="middle" fill="black" font-size="15" x="1537.62" y="60.8594">A</text>
  </a>
  <a xlink:href="70.html" id="a11">
    <path id="a11" fill="none" stroke="blue" stroke-width="2" d="M 199.5 499.354 L 225.5 499.354 L 225.5 363 L 369.75 363 " />
    <use xlink:href="#arrow" transform="translate(353.75 357)" />
    <text text-anchor="middle" fill="black" font-size="15" x="289.625" y="378">FB[0]</text>
  </a>
  <a xlink:href="76.html" id="a12">
    <path id="a12" fill="none" stroke="blue" stroke-width="2" d="M 199.5 527.177 L 235.5 527.177 L 235.5 459 L 632.5 459 " />
    <use xlink:href="#arrow" transform="translate(616.5 453)" />
    <text text-anchor="middle" fill="black" font-size="15" x="289.625" y="474">FB[1]</text>
  </a>
  <a xlink:href="82.html" id="a13">
    <path id="a13" fill="none" stroke="blue" stroke-width="2" d="M 199.5 555 L 895.25 555 " />
    <use xlink:href="#arrow" transform="translate(879.25 549)" />
    <text text-anchor="middle" fill="black" font-size="15" x="289.625" y="570">FB[2]</text>
  </a>
  <a xlink:href="90.html" id="a14">
    <path id="a14" fill="none" stroke="blue" stroke-width="2" d="M 1480 242 L 1595.25 242 " />
    <use xlink:href="#arrow" transform="translate(1579.25 236)" />
    <text text-anchor="middle" fill="black" font-size="15" x="1537.62" y="257">B</text>
  </a>
  <a xlink:href="54.html" id="a15">
    <path id="a15" fill="none" stroke="blue" stroke-width="2" d="M 409.75 403 L 409.75 449 L 475.75 449 L 475.75 338 L 672.5 338 L 672.5 419 " />
    <use xlink:href="#arrow" transform="translate(678.5 403) rotate(90 0.0 0.0)" />
    <text text-anchor="middle" fill="black" font-size="15" x="541.125" y="353">A[0][1]</text>
  </a>
  <a xlink:href="50.html" id="a16">
    <path id="a16" fill="none" stroke="blue" stroke-width="2" d="M 672.5 282 L 672.5 328 L 738.5 328 L 738.5 96 L 935.25 96 L 935.25 106 " />
    <use xlink:href="#arrow" transform="translate(941.25 90) rotate(90 0.0 0.0)" />
    <text text-anchor="middle" fill="black" font-size="15" x="803.875" y="111">A[0][0]</text>
  </a>
  <a xlink:href="60.html" id="a17">
    <path id="a17" fill="none" stroke="blue" stroke-width="2" d="M 672.5 499 L 672.5 545 L 738.5 545 L 738.5 434 L 935.25 434 L 935.25 515 " />
    <use xlink:href="#arrow" transform="translate(941.25 499) rotate(90 0.0 0.0)" />
    <text text-anchor="middle" fill="black" font-size="15" x="803.875" y="449">A[1][1]</text>
  </a>
  <a xlink:href="58.html" id="a18">
    <path id="a18" fill="none" stroke="blue" stroke-width="2" d="M 935.25 186 L 935.25 232 L 1001.25 232 L 1001.25 0 L 1198 0 L 1198 10 " />
    <use xlink:href="#arrow" transform="translate(1204 -6) rotate(90 0.0 0.0)" />
    <text text-anchor="middle" fill="black" font-size="15" x="1066.62" y="15">A[1][0]</text>
  </a>
  <a xlink:href="64.html" id="a19">
    <path id="a19" fill="none" stroke="blue" stroke-width="2" d="M 935.25 595 L 935.25 641 L 1001.25 641 L 1001.25 530 L 1371 530 L 1371 66.7188 L 1407 66.7188 " />
    <use xlink:href="#arrow" transform="translate(1391 60.7188)" />
    <text text-anchor="middle" fill="black" font-size="15" x="1066.62" y="545">A[1]</text>
  </a>
  <a xlink:href="62.html" id="a20">
    <path id="a20" fill="none" stroke="blue" stroke-width="2" d="M 1198 90 L 1198 136 L 1264 136 L 1264 25 L 1407 25 " />
    <use xlink:href="#arrow" transform="translate(1391 19)" />
    <text text-anchor="middle" fill="black" font-size="15" x="1312.5" y="40">A[0]</text>
  </a>
  <a xlink:href="10.html" id="a21">
    <rect id="a21" stroke="black" stroke-width="0.5" fill="none" x="632.5" y="202" width="80" height="80" />
    <image x="632.5" y="202" width="80" height="80" xlink:href="b14d48e0-1285-11e4-9191-0800200c9a66/Exchanger.svg" />
    <text text-anchor="middle" fill="black" font-size="15" x="672.5" y="318">S[0][0]</text>
  </a>
  <a xlink:href="16.html" id="a22">
    <rect id="a22" stroke="black" stroke-width="0.5" fill="none" x="369.75" y="323" width="80" height="80" />
    <image x="369.75" y="323" width="80" height="80" xlink:href="b14d48e0-1285-11e4-9191-0800200c9a66/Exchanger.svg" />
    <text text-anchor="middle" fill="black" font-size="15" x="409.75" y="439">S[0][1]</text>
  </a>
  <a xlink:href="22.html" id="a23">
    <rect id="a23" stroke="black" stroke-width="0.5" fill="none" x="895.25" y="106" width="80" height="80" />
    <image x="895.25" y="106" width="80" height="80" xlink:href="b14d48e0-1285-11e4-9191-0800200c9a66/Exchanger.svg" />
    <text text-anchor="middle" fill="black" font-size="15" x="935.25" y="222">S[1][0]</text>
  </a>
  <a xlink:href="28.html" id="a24">
    <rect id="a24" stroke="black" stroke-width="0.5" fill="none" x="632.5" y="419" width="80" height="80" />
    <image x="632.5" y="419" width="80" height="80" xlink:href="b14d48e0-1285-11e4-9191-0800200c9a66/Exchanger.svg" />
    <text text-anchor="middle" fill="black" font-size="15" x="672.5" y="535">S[1][1]</text>
  </a>
  <a xlink:href="34.html" id="a25">
    <rect id="a25" stroke="black" stroke-width="0.5" fill="none" x="1158" y="10" width="80" height="80" />
    <image x="1158" y="10" width="80" height="80" xlink:href="b14d48e0-1285-11e4-9191-0800200c9a66/Exchanger.svg" />
    <text text-anchor="middle" fill="black" font-size="15" x="1198" y="126">S[2][0]</text>
  </a>
  <a xlink:href="40.html" id="a26">
    <rect id="a26" stroke="black" stroke-width="0.5" fill="none" x="895.25" y="515" width="80" height="80" />
    <image x="895.25" y="515" width="80" height="80" xlink:href="b14d48e0-1285-11e4-9191-0800200c9a66/Exchanger.svg" />
    <text text-anchor="middle" fill="black" font-size="15" x="935.25" y="631">S[2][1]</text>
  </a>
  <a xlink:href="46.html" id="a27">
    <rect id="a27" stroke="black" stroke-width="0.5" fill="none" x="126.5" y="250.398" width="73" height="83.4688" />
    <image x="126.5" y="250.398" width="73" height="83.4688" xlink:href="b14d48e0-1285-11e4-9191-0800200c9a66/Divider.svg" />
    <text text-anchor="middle" fill="black" font-size="15" x="163" y="348.867">SPLITA</text>
  </a>
  <a xlink:href="47.html" id="a28">
    <rect id="a28" stroke="black" stroke-width="0.5" fill="none" x="1407" y="4.14062" width="73" height="83.4375" />
    <image x="1407" y="4.14062" width="73" height="83.4375" xlink:href="b14d48e0-1285-11e4-9191-0800200c9a66/Mixer.svg" />
    <text text-anchor="middle" fill="black" font-size="15" x="1443.5" y="102.578">MIXA</text>
  </a>
  <a xlink:href="48.html" id="a29">
    <rect id="a29" stroke="black" stroke-width="0.5" fill="none" x="126.5" y="485.443" width="73" height="83.4688" />
    <image x="126.5" y="485.443" width="73" height="83.4688" xlink:href="b14d48e0-1285-11e4-9191-0800200c9a66/Divider.svg" />
    <text text-anchor="middle" fill="black" font-size="15" x="163" y="583.911">SPLITB</text>
  </a>
  <a xlink:href="49.html" id="a30">
    <rect id="a30" stroke="black" stroke-width="0.5" fill="none" x="1407" y="200.281" width="73" height="83.4375" />
    <image x="1407" y="200.281" width="73" height="83.4375" xlink:href="b14d48e0-1285-11e4-9191-0800200c9a66/Mixer.svg" />
    <text text-anchor="middle" fill="black" font-size="15" x="1443.5" y="298.719">MIXB</text>
  </a>
</svg>
